lib/functional/commerce/receipt.svg

<svg xmlns="http://www.w3.org/2000/svg" fill="none" stroke="currentColor" aria-hidden="true" viewBox="0 0 32 32"><g id="Icon-Receipt"><g clip-path="url(#clip0_12_5909)"><g id="size=md (32px)"><g id="Receipt"><path id="Vector" stroke-linecap="round" stroke-linejoin="round" stroke-width="2" d="M9.5 13H22.5"/><path id="Vector_2" stroke-linecap="round" stroke-linejoin="round" stroke-width="2" d="M9.5 17H22.5"/><path id="Vector_3" stroke-linecap="round" stroke-linejoin="round" stroke-width="2" d="M4 26V7C4 6.73478 4.10536 6.48043 4.29289 6.29289C4.48043 6.10536 4.73478 6 5 6H27C27.2652 6 27.5196 6.10536 27.7071 6.29289C27.8946 6.48043 28 6.73478 28 7V26L24 24L20 26L16 24L12 26L8 24L4 26Z"/></g></g></g></g><defs><clipPath id="clip0_12_5909"><rect width="32" height="32" fill="white" rx="5"/></clipPath></defs></svg>

<svg xmlns="http://www.w3.org/2000/svg" fill="none" stroke="currentColor" aria-hidden="true" viewBox="0 0 32 32"><g clip-path="url(#a)"><path stroke-linecap="round" stroke-linejoin="round" stroke-width="2" d="M9.5 13h13m-13 4h13M4 26V7a1 1 0 0 1 1-1h22a1 1 0 0 1 1 1v19l-4-2-4 2-4-2-4 2-4-2-4 2Z"/></g><defs><clipPath id="a"><rect width="32" height="32" fill="#fff" rx="5"/></clipPath></defs></svg>
